img/logo-together.svg

<svg width="224" height="95" viewBox="0 0 224 95" fill="none" xmlns="http://www.w3.org/2000/svg">
<path fill-rule="evenodd" clip-rule="evenodd" d="M47.5 95C73.7335 95 95 73.7335 95 47.5C95 21.2665 73.7335 0 47.5 0C21.2665 0 0 21.2665 0 47.5C0 73.7335 21.2665 95 47.5 95Z" fill="url(#paint0_linear)" fill-opacity="0.1"/>
<path fill-rule="evenodd" clip-rule="evenodd" d="M47.5 88.0388C69.8889 88.0388 88.0388 69.889 88.0388 47.5C88.0388 25.111 69.8889 6.96121 47.5 6.96121C25.111 6.96121 6.96118 25.111 6.96118 47.5C6.96118 69.889 25.111 88.0388 47.5 88.0388Z" fill="url(#paint1_linear)" fill-opacity="0.3"/>
<path fill-rule="evenodd" clip-rule="evenodd" d="M47.4488 80.5657C65.7388 80.5657 80.5657 65.7388 80.5657 47.4488C80.5657 29.1589 65.7388 14.3319 47.4488 14.3319C29.1589 14.3319 14.3319 29.1589 14.3319 47.4488C14.3319 65.7388 29.1589 80.5657 47.4488 80.5657Z" fill="#F9F9F9" fill-opacity="0.67"/>
<path fill-rule="evenodd" clip-rule="evenodd" d="M47.5 78.2112C64.4614 78.2112 78.2112 64.4613 78.2112 47.5C78.2112 30.5387 64.4614 16.7888 47.5 16.7888C30.5387 16.7888 16.7888 30.5387 16.7888 47.5C16.7888 64.4613 30.5387 78.2112 47.5 78.2112Z" fill="url(#paint2_linear)"/>
<path fill-rule="evenodd" clip-rule="evenodd" d="M47.5 78.2112C64.4614 78.2112 78.2112 64.4613 78.2112 47.5C78.2112 30.5387 64.4614 16.7888 47.5 16.7888C30.5387 16.7888 16.7888 30.5387 16.7888 47.5C16.7888 64.4613 30.5387 78.2112 47.5 78.2112Z" fill="url(#paint3_linear)"/>
<mask id="mask0" mask-type="alpha" maskUnits="userSpaceOnUse" x="16" y="16" width="63" height="63">
<path fill-rule="evenodd" clip-rule="evenodd" d="M47.5 78.2112C64.4614 78.2112 78.2112 64.4613 78.2112 47.5C78.2112 30.5387 64.4614 16.7888 47.5 16.7888C30.5387 16.7888 16.7888 30.5387 16.7888 47.5C16.7888 64.4613 30.5387 78.2112 47.5 78.2112Z" fill="white"/>
</mask>
<g mask="url(#mask0)">
<path fill-rule="evenodd" clip-rule="evenodd" d="M43.6729 53.0945C41.1574 48.6696 38.6299 49.8038 38.6299 49.8038C45.984 59.5857 44.8549 66.5624 44.9138 68.7054H42.3312C44.9138 61.5013 37.5279 50.9685 37.5279 50.9685C35.4202 53.8169 38.9279 57.9433 38.9279 57.9433C33.1713 56.3583 34.7278 52.0252 34.7278 52.0252C32.4457 54.7211 33.2239 57.3635 33.2239 57.3635C30.2148 53.8232 33.5868 50.2292 33.5868 50.2292C31.1495 51.1272 30.6891 53.0945 30.6891 53.0945C30.4696 47.4345 35.4202 48.051 35.4202 48.051C37.8422 41.7167 43.6965 45.9765 43.6965 45.9765C39.8128 45.4721 39.2167 47.3224 39.2167 47.3224C44.2781 47.0973 43.6729 53.0945 43.6729 53.0945Z" fill="white"/>
<path fill-rule="evenodd" clip-rule="evenodd" d="M59.4731 47.7263C59.4731 47.7263 63.3549 54.2959 56.8325 56.176C56.8325 56.176 59.8315 53.6939 56.4389 47.5C56.4389 47.5 51.1305 52.7569 49.8469 68.7054H47.5C48.9289 56.176 53.2725 47.1361 55.7508 46.1495C55.7508 46.1495 51.4466 44.733 48.3667 48.6937C48.3667 48.6937 47.8932 43.1519 54.8361 43.8235C54.8361 43.8235 53.9244 42.5372 47.5 43.1762C47.5 43.1762 52.3779 37.6902 59.2024 43.8235C59.2024 43.8235 66.2094 42.4252 66.5117 50.3013C66.5117 50.3013 64.7556 47.1281 61.1758 46.1495C61.1758 46.1495 67.2682 51.2607 63.3549 56.4993C63.3549 56.4993 63.0265 51.2134 59.4731 47.7263Z" fill="white"/>
<path fill-rule="evenodd" clip-rule="evenodd" d="M73.0927 76.7488C73.0927 83.2115 61.1435 88.4483 46.4022 88.4483C31.661 88.4483 19.7137 83.2115 19.7137 76.7488C19.7137 70.2861 31.661 65.0493 46.4022 65.0493C61.1435 65.0493 73.0927 70.2861 73.0927 76.7488Z" fill="url(#paint4_linear)"/>
<path fill-rule="evenodd" clip-rule="evenodd" d="M59.1995 26.2952C59.1995 29.1211 56.9075 31.4132 54.0816 31.4132C51.2546 31.4132 48.9625 29.1211 48.9625 26.2952C48.9625 23.4682 51.2546 21.1761 54.0816 21.1761C56.9075 21.1761 59.1995 23.4682 59.1995 26.2952Z" fill="#FACC5F"/>
</g>
<path d="M126.15 57.75H122.07V40.44H115.11V36.87H133.11V40.44H126.15V57.75Z" fill="white"/>
<path d="M137.456 50.1V57.75H133.646V42.24H137.306V44.82C137.786 43.96 138.396 43.3 139.136 42.84C139.896 42.36 140.746 42.12 141.686 42.12H142.286V45.72H141.566C140.406 45.72 139.426 46.1 138.626 46.86C137.846 47.62 137.456 48.7 137.456 50.1Z" fill="white"/>
<path d="M149.333 58.2C147.713 58.2 146.413 57.76 145.433 56.88C144.473 55.98 143.993 54.79 143.993 53.31C143.993 51.71 144.573 50.46 145.733 49.56C146.893 48.66 148.513 48.21 150.593 48.21H153.743V47.64C153.743 46.68 153.483 45.99 152.963 45.57C152.443 45.13 151.743 44.91 150.863 44.91C150.103 44.91 149.483 45.06 149.003 45.36C148.523 45.66 148.223 46.01 148.103 46.41H144.443C144.703 45.09 145.403 43.99 146.543 43.11C147.683 42.23 149.163 41.79 150.983 41.79C153.003 41.79 154.593 42.3 155.753 43.32C156.913 44.32 157.493 45.89 157.493 48.03V57.75H153.983V55.83C153.483 56.65 152.803 57.25 151.943 57.63C151.103 58.01 150.233 58.2 149.333 58.2ZM150.293 55.14C150.833 55.14 151.363 55.02 151.883 54.78C152.423 54.54 152.863 54.19 153.203 53.73C153.563 53.25 153.743 52.65 153.743 51.93V50.94H150.773C149.793 50.94 149.033 51.13 148.493 51.51C147.973 51.87 147.713 52.39 147.713 53.07C147.713 53.75 147.953 54.27 148.433 54.63C148.913 54.97 149.533 55.14 150.293 55.14Z" fill="white"/>
<path d="M169.056 57.75H165.066L159.036 42.24H163.386L167.196 53.4L171.006 42.24H175.116L169.056 57.75Z" fill="white"/>
<path d="M183.874 58.2C182.274 58.2 180.894 57.87 179.734 57.21C178.594 56.53 177.714 55.57 177.094 54.33C176.474 53.09 176.164 51.62 176.164 49.92C176.164 48.38 176.464 47 177.064 45.78C177.684 44.54 178.564 43.57 179.704 42.87C180.844 42.15 182.204 41.79 183.784 41.79C186.064 41.79 187.814 42.52 189.034 43.98C190.254 45.44 190.864 47.39 190.864 49.83V51.21H180.004C180.324 53.79 181.624 55.08 183.904 55.08C184.644 55.08 185.254 54.96 185.734 54.72C186.234 54.48 186.574 54.17 186.754 53.79H190.594C190.214 55.15 189.424 56.23 188.224 57.03C187.044 57.81 185.594 58.2 183.874 58.2ZM183.754 44.91C182.714 44.91 181.874 45.22 181.234 45.84C180.594 46.44 180.184 47.31 180.004 48.45H187.144C187.104 47.39 186.794 46.54 186.214 45.9C185.654 45.24 184.834 44.91 183.754 44.91Z" fill="white"/>
<path d="M193.968 57.75V36H197.778V57.75H193.968Z" fill="white"/>
<path d="M201.732 57.75V36H205.542V57.75H201.732Z" fill="white"/>
<path d="M213.816 58.2C212.196 58.2 210.896 57.76 209.916 56.88C208.956 55.98 208.476 54.79 208.476 53.31C208.476 51.71 209.056 50.46 210.216 49.56C211.376 48.66 212.996 48.21 215.076 48.21H218.226V47.64C218.226 46.68 217.966 45.99 217.446 45.57C216.926 45.13 216.226 44.91 215.346 44.91C214.586 44.91 213.966 45.06 213.486 45.36C213.006 45.66 212.706 46.01 212.586 46.41H208.926C209.186 45.09 209.886 43.99 211.026 43.11C212.166 42.23 213.646 41.79 215.466 41.79C217.486 41.79 219.076 42.3 220.236 43.32C221.396 44.32 221.976 45.89 221.976 48.03V57.75H218.466V55.83C217.966 56.65 217.286 57.25 216.426 57.63C215.586 58.01 214.716 58.2 213.816 58.2ZM214.776 55.14C215.316 55.14 215.846 55.02 216.366 54.78C216.906 54.54 217.346 54.19 217.686 53.73C218.046 53.25 218.226 52.65 218.226 51.93V50.94H215.256C214.276 50.94 213.516 51.13 212.976 51.51C212.456 51.87 212.196 52.39 212.196 53.07C212.196 53.75 212.436 54.27 212.916 54.63C213.396 54.97 214.016 55.14 214.776 55.14Z" fill="white"/>
<defs>
<linearGradient id="paint0_linear" x1="0" y1="0" x2="0" y2="95" gradientUnits="userSpaceOnUse">
<stop stop-color="white"/>
<stop offset="1" stop-color="#DFDFDF"/>
</linearGradient>
<linearGradient id="paint1_linear" x1="6.96118" y1="6.96121" x2="6.96118" y2="88.0388" gradientUnits="userSpaceOnUse">
<stop stop-color="white"/>
<stop offset="1" stop-color="#DFDFDF"/>
</linearGradient>
<linearGradient id="paint2_linear" x1="78.2112" y1="78.2112" x2="78.2112" y2="16.7888" gradientUnits="userSpaceOnUse">
<stop stop-color="#80C3F3"/>
<stop offset="1" stop-color="#4A90E2"/>
</linearGradient>
<linearGradient id="paint3_linear" x1="44.5638" y1="-59.9036" x2="-43.7195" y2="48.5188" gradientUnits="userSpaceOnUse">
<stop stop-color="#2151AC"/>
<stop offset="1" stop-color="#0F274E"/>
</linearGradient>
<linearGradient id="paint4_linear" x1="19.7137" y1="65.0493" x2="19.7137" y2="88.4483" gradientUnits="userSpaceOnUse">
<stop stop-color="white"/>
<stop offset="1" stop-color="#DFDFDF"/>
</linearGradient>
</defs>
</svg>

<svg xmlns="http://www.w3.org/2000/svg" width="224" height="95" fill="none" viewBox="0 0 224 95"><path fill="url(#paint0_linear)" fill-opacity=".1" fill-rule="evenodd" d="M47.5 95C73.734 95 95 73.734 95 47.5 95 21.267 73.734 0 47.5 0 21.267 0 0 21.267 0 47.5 0 73.734 21.267 95 47.5 95z" clip-rule="evenodd"/><path fill="url(#paint1_linear)" fill-opacity=".3" fill-rule="evenodd" d="M47.5 88.039c22.389 0 40.539-18.15 40.539-40.539 0-22.389-18.15-40.539-40.539-40.539-22.389 0-40.539 18.15-40.539 40.539 0 22.389 18.15 40.539 40.539 40.539z" clip-rule="evenodd"/><path fill="#F9F9F9" fill-opacity=".67" fill-rule="evenodd" d="M47.449 80.566c18.29 0 33.117-14.827 33.117-33.117S65.739 14.332 47.449 14.332 14.332 29.159 14.332 47.449s14.827 33.117 33.117 33.117z" clip-rule="evenodd"/><path fill="url(#paint2_linear)" fill-rule="evenodd" d="M47.5 78.211c16.961 0 30.711-13.75 30.711-30.711S64.461 16.789 47.5 16.789 16.789 30.539 16.789 47.5 30.539 78.211 47.5 78.211z" clip-rule="evenodd"/><path fill="url(#paint3_linear)" fill-rule="evenodd" d="M47.5 78.211c16.961 0 30.711-13.75 30.711-30.711S64.461 16.789 47.5 16.789 16.789 30.539 16.789 47.5 30.539 78.211 47.5 78.211z" clip-rule="evenodd"/><mask id="a" width="63" height="63" x="16" y="16" maskUnits="userSpaceOnUse"><path fill="#fff" fill-rule="evenodd" d="M47.5 78.211c16.961 0 30.711-13.75 30.711-30.711S64.461 16.789 47.5 16.789 16.789 30.539 16.789 47.5 30.539 78.211 47.5 78.211z" clip-rule="evenodd"/></mask><g fill-rule="evenodd" clip-rule="evenodd" mask="url(#a)"><path fill="#fff" d="M43.673 53.094c-2.516-4.424-5.043-3.29-5.043-3.29 7.354 9.782 6.225 16.758 6.284 18.901H42.33c2.583-7.204-4.803-17.736-4.803-17.736-2.108 2.848 1.4 6.974 1.4 6.974-5.757-1.585-4.2-5.918-4.2-5.918-2.282 2.696-1.504 5.339-1.504 5.339-3.01-3.54.363-7.135.363-7.135-2.438.898-2.898 2.865-2.898 2.865-.22-5.66 4.731-5.043 4.731-5.043 2.422-6.334 8.276-2.075 8.276-2.075-3.883-.504-4.48 1.346-4.48 1.346 5.062-.225 4.457 5.772 4.457 5.772zM59.473 47.726s3.882 6.57-2.64 8.45c0 0 2.998-2.482-.394-8.676 0 0-5.309 5.257-6.592 21.205H47.5c1.429-12.529 5.773-21.569 8.25-22.555 0 0-4.303-1.417-7.383 2.544 0 0-.474-5.542 6.47-4.87 0 0-.913-1.287-7.337-.648 0 0 4.878-5.486 11.702.648 0 0 7.007-1.399 7.31 6.477 0 0-1.756-3.173-5.336-4.151 0 0 6.092 5.11 2.179 10.35 0 0-.328-5.287-3.882-8.774z"/><path fill="url(#paint4_linear)" d="M73.093 76.749c0 6.463-11.95 11.7-26.69 11.7-14.742 0-26.69-5.237-26.69-11.7 0-6.463 11.948-11.7 26.69-11.7 14.74 0 26.69 5.237 26.69 11.7z"/><path fill="#FACC5F" d="M59.2 26.295a5.119 5.119 0 1 1-10.238-.001 5.119 5.119 0 0 1 10.237.001z"/></g><path fill="#fff" d="M126.15 57.75h-4.08V40.44h-6.96v-3.57h18v3.57h-6.96v17.31zM137.456 50.1v7.65h-3.81V42.24h3.66v2.58c.48-.86 1.09-1.52 1.83-1.98.76-.48 1.61-.72 2.55-.72h.6v3.6h-.72c-1.16 0-2.14.38-2.94 1.14-.78.76-1.17 1.84-1.17 3.24zM149.333 58.2c-1.62 0-2.92-.44-3.9-1.32-.96-.9-1.44-2.09-1.44-3.57 0-1.6.58-2.85 1.74-3.75 1.16-.9 2.78-1.35 4.86-1.35h3.15v-.57c0-.96-.26-1.65-.78-2.07-.52-.44-1.22-.66-2.1-.66-.76 0-1.38.15-1.86.45-.48.3-.78.65-.9 1.05h-3.66c.26-1.32.96-2.42 2.1-3.3 1.14-.88 2.62-1.32 4.44-1.32 2.02 0 3.61.51 4.77 1.53 1.16 1 1.74 2.57 1.74 4.71v9.72h-3.51v-1.92a4.45 4.45 0 01-2.04 1.8c-.84.38-1.71.57-2.61.57zm.96-3.06c.54 0 1.07-.12 1.59-.36.54-.24.98-.59 1.32-1.05.36-.48.54-1.08.54-1.8v-.99h-2.97c-.98 0-1.74.19-2.28.57-.52.36-.78.88-.78 1.56s.24 1.2.72 1.56c.48.34 1.1.51 1.86.51zM169.056 57.75h-3.99l-6.03-15.51h4.35l3.81 11.16 3.81-11.16h4.11l-6.06 15.51zM183.874 58.2c-1.6 0-2.98-.33-4.14-.99-1.14-.68-2.02-1.64-2.64-2.88-.62-1.24-.93-2.71-.93-4.41 0-1.54.3-2.92.9-4.14.62-1.24 1.5-2.21 2.64-2.91 1.14-.72 2.5-1.08 4.08-1.08 2.28 0 4.03.73 5.25 2.19 1.22 1.46 1.83 3.41 1.83 5.85v1.38h-10.86c.32 2.58 1.62 3.87 3.9 3.87.74 0 1.35-.12 1.83-.36.5-.24.84-.55 1.02-.93h3.84c-.38 1.36-1.17 2.44-2.37 3.24-1.18.78-2.63 1.17-4.35 1.17zm-.12-13.29c-1.04 0-1.88.31-2.52.93-.64.6-1.05 1.47-1.23 2.61h7.14c-.04-1.06-.35-1.91-.93-2.55-.56-.66-1.38-.99-2.46-.99zM193.968 57.75V36h3.81v21.75h-3.81zM201.732 57.75V36h3.81v21.75h-3.81zM213.816 58.2c-1.62 0-2.92-.44-3.9-1.32-.96-.9-1.44-2.09-1.44-3.57 0-1.6.58-2.85 1.74-3.75 1.16-.9 2.78-1.35 4.86-1.35h3.15v-.57c0-.96-.26-1.65-.78-2.07-.52-.44-1.22-.66-2.1-.66-.76 0-1.38.15-1.86.45-.48.3-.78.65-.9 1.05h-3.66c.26-1.32.96-2.42 2.1-3.3 1.14-.88 2.62-1.32 4.44-1.32 2.02 0 3.61.51 4.77 1.53 1.16 1 1.74 2.57 1.74 4.71v9.72h-3.51v-1.92a4.45 4.45 0 01-2.04 1.8c-.84.38-1.71.57-2.61.57zm.96-3.06c.54 0 1.07-.12 1.59-.36.54-.24.98-.59 1.32-1.05.36-.48.54-1.08.54-1.8v-.99h-2.97c-.98 0-1.74.19-2.28.57-.52.36-.78.88-.78 1.56s.24 1.2.72 1.56c.48.34 1.1.51 1.86.51z"/><defs><linearGradient id="paint0_linear" x1="0" x2="0" y1="0" y2="95" gradientUnits="userSpaceOnUse"><stop stop-color="#fff"/><stop offset="1" stop-color="#DFDFDF"/></linearGradient><linearGradient id="paint1_linear" x1="6.961" x2="6.961" y1="6.961" y2="88.039" gradientUnits="userSpaceOnUse"><stop stop-color="#fff"/><stop offset="1" stop-color="#DFDFDF"/></linearGradient><linearGradient id="paint2_linear" x1="78.211" x2="78.211" y1="78.211" y2="16.789" gradientUnits="userSpaceOnUse"><stop stop-color="#80C3F3"/><stop offset="1" stop-color="#4A90E2"/></linearGradient><linearGradient id="paint3_linear" x1="44.564" x2="-43.719" y1="-59.904" y2="48.519" gradientUnits="userSpaceOnUse"><stop stop-color="#2151AC"/><stop offset="1" stop-color="#0F274E"/></linearGradient><linearGradient id="paint4_linear" x1="19.714" x2="19.714" y1="65.049" y2="88.448" gradientUnits="userSpaceOnUse"><stop stop-color="#fff"/><stop offset="1" stop-color="#DFDFDF"/></linearGradient></defs></svg>
